!!!COM:	W.A. Mozart
!!!OTL:	Quartet No.1 in G Major, K.80, mvmnt.1
**kern	**kern	**kern	**kern	**dynam
*part4	*part3	*part2	*part1	*part1
*staff4	*staff3	*staff2	*staff1	*
*I"Cello	*I"Viola	*I"Violin II	*I"Violin I	*
*I'Vc.	*I'Vla.	*I'Vln. II	*I'Vln. I	*
*clefF4	*clefC3	*clefG2	*clefG2	*
*k[f#]	*k[f#]	*k[f#]	*k[f#]	*
*G:	*G:	*G:	*G:	*
*M3/4	*M3/4	*M3/4	*M3/4	*
=1	=1	=1	=1	=1
8GL	8BL	2.r	4dd	.
8GJ	8BJ	.	.	.
8GL	8BL	.	4.dd	.
8GJ	8BJ	.	.	.
8GL	8BL	.	.	.
8GJ	8BJ	.	8gg	.
=2	=2	=2	=2	=2
.	.	.	16qqaa/	.
8AL	8cL	2.r	4ggT	.
8AJ	8cJ	.	.	.
8AL	8cL	.	(4.ff#	.
8AJ	8cJ	.	.	.
8AL	8cL	.	.	.
8GJ	8BJ	.	8gg)	.
=3	=3	=3	=3	=3
8F#L	8AL	[2.ddd	(8aaL	.
8F#J	8AJ	.	8ff#J)	.
8F#L	8AL	.	4.dd	.
8F#J	8AJ	.	.	.
8F#L	8AL	.	.	.
8F#J	8AJ	.	8cc	.
=4	=4	=4	=4	=4
.	16qqB/	.	16qqdd/	p
8GL	4A	4.ddd]	4cc	.
8GJ	.	.	.	.
8GL	4G	.	4b	.
8GJ	.	(16ddLL	.	.
.	.	16ggJJ)	.	.
8GL	4r	16gg'LL	4r	.
.	.	(16bb	.	.
8GJ	.	16ccc	.	.
.	.	16dddJJ)	.	.
=5	=5	=5	=5	=5
8GL	2.r	8eee	8ccc	.
8GJ	.	4ee	4cc	.
8GL	.	.	.	.
8GJ	.	(16ggLL	(16eeLL	.
.	.	16ff#JJ)	16ddJJ)	.
8GL	.	(16aaLL	(16ff#LL	.
.	.	16gg)	16ee)	.
8GJ	.	(16ff#	(16dd	.
.	.	16eeJJ)	16ccJJ)	.
=6	=6	=6	=6	=6
8GL	8g	16dd'LL	16b'LL	.
.	.	16b'	16dd'	.
8GJ	4G	16cc'	16ee'	.
.	.	16dd'JJ	16ff#'JJ	.
8GL	.	16ee'LL	16gg'LL	.
.	.	16ff#'	16aa'	.
8GJ	8G	16gg'	16bb'	.
.	.	16aa'JJ	16ccc'JJ	.
16G'LL	16r	[4bb	[4ddd	.
16G'	16B'LL	.	.	.
16A'	16c'	.	.	.
16B'JJ	16d'JJ	.	.	.
=7	=7	=7	=7	=7
8cL	8eL	8bbL]	8dddL]	.
8CJ	8eJ	(16cccL	(16eeeL	.
.	.	16bbJJ)	16dddJJ)	.
8CL	8eL	4aa	4ccc	.
8CJ	8eJ	.	.	.
8C#XL	8eL	4gg	4bb	.
8C#J	8eJ	.	.	.
=8	=8	=8	=8	=8
4D	4d	4ggT	4bbt	.
8r	4r	4ff#	4aa	.
8D	.	.	.	.
8F#L	4r	4r	4r	.
8AJ	.	.	.	.
=9	=9	=9	=9	=9
8dL	8f#L	2.r	4.aa	.
8dJ	8f#J	.	.	.
8dL	8f#L	.	.	.
8dJ	8f#J	.	(16bbLL	.
.	.	.	16aaJJ)	.
8dL	8f#L	.	(16dddLL	.
.	.	.	16ccc#X)	.
8dJ	8f#J	.	(16bb	.
.	.	.	16aaJJ)	.
=10	=10	=10	=10	=10
8c#XL	8eL	2.r	(8.aaL	.
8c#J	8eJ	.	.	.
.	.	.	16bbJk)	.
8c#L	8eL	.	8aaL	.
8c#J	8eJ	.	8aaJ	.
8c#L	8eL	.	8aaL	.
8c#J	8eJ	.	8aaJ	.
=11	=11	=11	=11	=11
8BL	4d	[2.ddd	(16aaLL	.
.	.	.	16ff#J	.
8BJ	.	.	8ggJ)	.
8BL	4r	.	8r	.
8BJ	.	.	8gg	.
8BL	4r	.	8ggL	.
8BJ	.	.	8ggJ	.
=12	=12	=12	=12	=12
8AL	2.r	2.ddd]	(16ggLL	.
.	.	.	16eeJ	.
8AJ	.	.	8ff#J)	.
8AL	.	.	8r	.
8AJ	.	.	8ff#	.
8AL	.	.	8ff#L	.
8AJ	.	.	8ff#J	.
=13	=13	=13	=13	=13
4G#X	8e	24dddLL	4ee	.
.	.	24bb	.	.
.	.	24aa	.	.
.	4e	24gg#X	.	.
.	.	24ff#	.	.
.	.	24eeJJ	.	.
4r	.	24ddLL	4r	.
.	.	24b	.	.
.	.	24a	.	.
.	4e	24g#X	.	.
.	.	24f#	.	.
.	.	24eJJ	.	.
8r	.	16ddLL	4r	.
.	.	16b	.	.
8G#	8e	16bb	.	.
.	.	16ddJJ	.	.
=14	=14	=14	=14	=14
4.A	(16eLL	(16cc#XLL	2.r	.
.	16d	16b	.	.
.	16c#X	16a	.	.
.	16dJJ)	16bJJ)	.	.
.	8c#L	4a	.	.
8G	(8bJ	.	.	.
8F#L	8aL)	4r	.	.
8EJ	8c#J	.	.	.
=15	=15	=15	=15	=15
4.D	(16dLL	[2.aa	(16ff#LL	.
.	16c#X	.	16ee	.
.	16d	.	16ff#	.
.	16eJJ	.	16ggJJ	.
.	8f#L)	.	8aaL)	.
8d	8f#'J	.	8dd'J	.
8dL	8f#'L	.	8dd'L	.
8dJ	8f#'J	.	8dd'J	.
=16	=16	=16	=16	=16
8c#XL	(16gLL	2.aa]	(16ggLL	.
.	16e)	.	16ee)	.
8dJ	(16f#	.	(16ff#	.
.	16dJJ)	.	16ddJJ)	.
.	.	.	16qqdd/	.
[4A	8c#XL	.	8cc#XL	.
.	(16eL	.	(16eeL	.
.	16c#JJ)	.	16cc#JJ)	.
16ALL]	16ALL	.	4a	.
16G	(16b	.	.	.
16F#	16a)	.	.	.
16EJJ	16c#JJ	.	.	.
=17	=17	=17	=17	=17
4.D	(16dLL	(16ff#LL	[2.aa	.
.	16c#X	16ee	.	.
.	16d	16ff#	.	.
.	16eJJ	16ggJJ	.	.
.	8f#L)	8aaL)	.	.
8d	8f#J	8ddJ	.	.
8dL	8f#L	8ddL	.	.
8dJ	8f#J	8ddJ	.	.
=18	=18	=18	=18	=18
8c#XL	(16gLL	(16ggLL	2.aa]	.
.	16e)	16ee)	.	.
8dJ	(16f#	(16ff#	.	.
.	16dJJ)	16ddJJ)	.	.
[4A	8c#XL	8cc#XL	.	.
.	(16eL	(16eeL	.	.
.	16c#JJ)	16cc#JJ)	.	.
16ALL]	16ALL	4a	.	.
16G	(16b	.	.	.
16F#	16a)	.	.	.
16EJJ	16c#JJ	.	.	.
=19	=19	=19	=19	=19
8DL	8dL	8f#L	16r	.
.	.	.	8ddL	.
8DJ	8dJ	8f#J	.	.
.	.	.	8ff#	.
8F#L	8dL	8aL	.	.
.	.	.	8aa	.
8F#J	8dJ	8aJ	.	.
.	.	.	8ddd	.
8F#L	8dL	8aL	.	.
.	.	.	8ccc	.
8F#J	8dJ	8aJ	.	.
.	.	.	16aaJk	.
=20	=20	=20	=20	=20
8G	8d	8g	24bbLL	.
.	.	.	24ddd	.
.	.	.	24bb	.
8r	8r	8r	24gg	.
.	.	.	24dd	.
.	.	.	24bJJ	.
4r	4r	4r	24gLL	.
.	.	.	24dd	.
.	.	.	24b	.
.	.	.	24g	.
.	.	.	24d	.
.	.	.	24BJJ	.
8r	8r	8r	8GL	.
8G	8g	(16ddLL	(16bbL	.
.	.	16eeJJ)	16ggJJ)	.
=21	=21	=21	=21	=21
8AL	8aL	8dd	(32ff#LLL	.
.	.	.	32aa	.
.	.	.	32gg	.
.	.	.	32ff#	.
8AJ	8aJ	4dd	32gg	.
.	.	.	32aa	.
.	.	.	32bb	.
.	.	.	32ccc#XJJJ	.
8AL	8aL	.	32dddLLL	.
.	.	.	32ccc#	.
.	.	.	32ddd	.
.	.	.	32ccc#	.
8AJ	8aJ	4dd	32ddd	.
.	.	.	32aa	.
.	.	.	32ff#	.
.	.	.	32ddJJJ)	.
8AAL	8aL	.	(8.eeTL	.
8AAJ	8aJ	8cc#X	.	.
.	.	.	32ddLL	.
.	.	.	32eeJJJ)	.
=22	=22	=22	=22	=22
4D	4f# 4a	4dd	8ddL	.
.	.	.	(48ee'LL	.
.	.	.	48ff#'	.
.	.	.	48gg'	.
.	.	.	48aa'	.
.	.	.	48bb'	.
.	.	.	48ccc#X'JJJ)	.
16r	16r	4r	8ddd	.
(16DLL	(16f#LL	.	.	.
16C#X	16e	.	8r	.
16DJJ	16f#JJ	.	.	.
16ELL	16gLL	4r	4r	.
16D	16f#	.	.	.
16C#	16e	.	.	.
16DJJ)	16f#JJ)	.	.	.
=23	=23	=23	=23	=23
4BB	4f#	8ddL	2.r	.
.	.	(48ee'LL	.	.
.	.	48ff#'	.	.
.	.	48gg'	.	.
.	.	48aa'	.	.
.	.	48bb'	.	.
.	.	48ccc#X'JJJ)	.	.
16r	16r	8ddd	.	.
(16BLL	(16dLL	.	.	.
16A	16c#X	8r	.	.
16BJJ	16dJJ	.	.	.
16c#XLL	16eLL	4r	.	.
16B	16d	.	.	.
16A	16c#	.	.	.
16BJJ)	16dJJ)	.	.	.
=24	=24	=24	=24	=24
4F#	8dL	2.aa	2.ccc	.
.	(48e'LL	.	.	.
.	48f#'	.	.	.
.	48g'	.	.	.
.	48a'	.	.	.
.	48b'	.	.	.
.	48cc#X'JJJ)	.	.	.
8r	8ddL	.	.	.
8F#	8dJ	.	.	.
8F#L	8dL	.	.	.
8F#J	8dJ	.	.	.
=25	=25	=25	=25	=25
.	.	16qqaa/	16qqccc/	.
8GL	8dL	8ggL	8bbL	.
8GJ	8BJ	16ff#L	16aaL	.
.	.	16eeJJ	16ggJJ	.
8AL	8AL	4dd	4ff#	.
8AJ	8AJ	.	.	.
8AAL	8AL	(8.cc#XtL	(8.eeTL	.
8AAJ	8GJ	.	.	.
.	.	32bLL	32ddLL	.
.	.	32cc#JJJ)	32eeJJJ)	.
=26	=26	=26	=26	=26
2.D	8F#'L	4dd	8dd'L	.
.	(8f#J	.	(8aJ	.
.	8gL	4r	8bL	.
.	8f#J	.	8aJ	.
.	8gL	16r	8bL	.
.	.	32qqaa/	.	.
.	.	16ggLL	.	.
.	.	32qqff#/	.	.
.	8eJ)	16ee	8gJ)	.
.	.	32qqdd/	.	.
.	.	16cc#XJJ	.	.
=27	=27	=27	=27	=27
8D'L	2d	8ddL	4f#	.
(8F#J	.	(8aJ	.	.
8GL	.	8bL	4r	.
8F#J	.	8aJ	.	.
8GL	8r	8bL	16r	.
.	.	.	32qqaa/	.
.	.	.	16ggLL	.
.	.	.	32qqff#/	.
8AJ)	8e	8gJ)	16ee	.
.	.	.	32qqdd/	.
.	.	.	16cc#XJJ	.
=28	=28	=28	=28	=28
[2D	(2e	(2g	(2cc#X	.
8D]	8d)	8f#)	8dd)	.
8r	8r	8r	8r	.
=29:|!	=29:|!	=29:|!	=29:|!	=29:|!
8DL	[2.dd	2.r	2.r	.
8F#J	.	.	.	.
8DL	.	.	.	.
8F#J	.	.	.	.
8DL	.	.	.	.
8F#J	.	.	.	.
=30	=30	=30	=30	=30
8EL	4dd]	2.gg	2.r	.
8GJ	.	.	.	.
8EL	2cc#X	.	.	.
8GJ	.	.	.	.
8EL	.	.	.	.
8GJ	.	.	.	.
=31	=31	=31	=31	=31
8F#L	(4cc	(4aa	2.ddd	.
8DJ	.	.	.	.
8GL	4b	4gg	.	.
8DJ	.	.	.	.
8AL	4cc)	4ff#)	.	.
8DJ	.	.	.	.
=32	=32	=32	=32	=32
8GL	4b	4.gg	(4ddd	.
8BJ	.	.	.	.
8GL	8r	.	8gggL)	.
8GGJ	(8d	(8bb	(8dddJ	.
8CL	8eL)	8aaL)	8cccL)	.
8C#XJ	8eJ	8ggJ	8bbJ	.
=33	=33	=33	=33	=33
4D	4d	4ggT	4bbt	.
8r	4r	4ff#	4aa	.
8d	.	.	.	.
8BL	4r	4r	4r	.
8AJ	.	.	.	.
=34	=34	=34	=34	=34
8G#XL	8bL	2.r	[4ee	.
8G#J	8bJ	.	.	.
8G#L	8bL	.	16eeLL]	.
.	.	.	16ff#	.
8G#J	8bJ	.	16gg#X	.
.	.	.	16aaJJ	.
8G#L	8bL	.	16bbLL	.
.	.	.	16ccc	.
8G#J	8bJ	.	16ddd	.
.	.	.	16bbJJ	.
=35	=35	=35	=35	=35
.	.	.	16qqddd/	.
8AL	4e	24aLL	4.ccc	.
.	.	24ee	.	.
.	.	24cc	.	.
8AAJ	.	24a	.	.
.	.	24e	.	.
.	.	24cJJ	.	.
8AAL	24r	8A	.	.
.	24ALL	.	.	.
.	24c	.	.	.
.	.	.	16qqbb/	.
8AAJ	24e	8r	8aa	.
.	24c	.	.	.
.	24eJJ	.	.	.
8AAL	8aL	8r	8eeeL	.
8AAJ	8eJ	8cc#X	8ggJ	.
=36	=36	=36	=36	=36
8DL	8f#L	[4dd	4ff#	.
8DJ	8f#J	.	.	.
8DL	8f#L	16ddLL]	4r	.
.	.	16ee	.	.
8DJ	8f#J	16ff#	.	.
.	.	16ggJJ	.	.
8DL	8f#L	16aaLL	4r	.
.	.	16bb	.	.
8DJ	8f#J	16ccc	.	.
.	.	16bbJJ	.	.
=37	=37	=37	=37	=37
.	.	16qqccc/	.	.
8GL	4g	4.bb	24gLL	.
.	.	.	24dd	.
.	.	.	24b	.
8GGJ	.	.	24g	.
.	.	.	24d	.
.	.	.	24BJJ	.
8GGL	24r	.	8G	.
.	24GLL	.	.	.
.	24BJJ	.	.	.
.	.	16qqaa/	.	.
8GGJ	24dLL	8gg	8r	.
.	24B	.	.	.
.	24dJJ	.	.	.
8GGL	8gL	8dddL	8r	.
8GGJ	8dJ	8bJ	(8ffn	.
=38	=38	=38	=38	=38
8CL	8cL	4cc	8ee)	.
8CJ	8cJ	.	4eee	.
8CL	8cL	4r	.	.
.	.	.	16qqddd/	.
8CJ	8eJ	.	8ccc	.
.	.	.	16qqbb/	.
8CL	8eL	4r	8aaL	.
8C#XJ	8eJ	.	8ggJ	.
=39	=39	=39	=39	=39
4.D	(16ALL	4r	(16ff#LL	.
.	16G	.	16ee	.
.	16F#	.	16dd	.
.	16GJJ)	.	16eeJJ)	.
.	4F#	8r	4dd	.
8c	.	(8eee	.	.
8BL	4r	8dddL)	4r	.
8AJ	.	8ff#J	.	.
=40	=40	=40	=40	=40
8GL	8BL	(8ggL	2.r	.
8GJ	8BJ	8ddJ)	.	.
8GL	8BL	[4dd	.	.
8GJ	8BJ	.	.	.
8GL	8BL	16ddLL]	.	.
.	.	16bb	.	.
8GJ	8BJ	16aa	.	.
.	.	16ggJJ	.	.
=41	=41	=41	=41	=41
.	.	16qqaa/	.	.
8AL	8cL	4gg	2.r	.
8AJ	8cJ	.	.	.
8AL	8cL	(4.ff#	.	.
8AJ	8cJ	.	.	.
8AL	8cL	.	.	.
8GJ	16BL	8gg)	.	.
.	16cJJ	.	.	.
=42	=42	=42	=42	=42
8F#L	8dL	4aa	[4ccc	.
8F#J	8dJ	.	.	.
8F#L	8AL	4r	8cccL]	.
8F#J	8AJ	.	8aaJ	.
8F#L	8AL	4r	8ff#L	.
8F#J	8AJ	.	8ccJ	.
=43	=43	=43	=43	=43
.	16qqB/	.	16qqdd/	.
8GL	4A	2.r	4cc	.
8GJ	.	.	.	.
8GL	8GL	.	4b	.
8GJ	(8gJ	.	.	.
8AL	8f#L	.	4r	.
8BJ	8gJ)	.	.	.
=44	=44	=44	=44	=44
8cL	8gL	[4cc	[4ee	.
8cJ	8gJ	.	.	.
8cL	8gL	8ccL]	8eeL]	.
8cJ	8gJ	8ccJ	8ggJ	.
.	.	16qqff#/	16qqaa/	.
8cL	8gL	8eeL	8ggL	.
8cJ	8gJ	16ddL	16ff#L	.
.	.	16ccJJ	16eeJJ	.
=45	=45	=45	=45	=45
8GL	8gL	[4b	[4dd	.
8GJ	8gJ	.	.	.
4GG	4G	8bL]	8ddL]	.
.	.	16ccL	16eeL	.
.	.	16ddJJ	16ff#JJ	.
4r	4r	16eeLL	16ggLL	.
.	.	16ff#	16aa	.
.	.	16gg	16bb	.
.	.	16aaJJ	16cccJJ	.
=46	=46	=46	=46	=46
8r	8r	(8.bbL	(8.dddL	.
8G	8d	.	.	.
.	.	32cccLL	32eeeLL	.
.	.	32bbJJJ)	32dddJJJ)	.
8CL	8eL	4aa	4ccc	.
8CJ	8eJ	.	.	.
8C#XL	8eL	4gg	4bb	.
8C#J	8eJ	.	.	.
=47	=47	=47	=47	=47
4.D	4d	4ggT	4bbt	.
.	4r	4ff#	4aa	.
8c	.	.	.	.
8BL	4r	4r	4r	.
8AJ	.	.	.	.
=48	=48	=48	=48	=48
8GL	8bL	2.r	4.dd	.
8GJ	8bJ	.	.	.
8GL	8bL	.	.	.
8GJ	8bJ	.	(16eeLL	.
.	.	.	16ddJJ)	.
8GL	8bL	.	(16ggLL	.
.	.	.	16ff#)	.
8GJ	8bJ	.	(16ee	.
.	.	.	16ddJJ)	.
=49	=49	=49	=49	=49
8F#L	8aL	2.r	(16ddLL	.
.	.	.	16eeJ)	.
8F#J	8aJ	.	8ddJ	.
8F#L	8aL	.	8r	.
8F#J	8aJ	.	8ddd	.
8F#L	8aL	.	8dddL	.
8F#J	8aJ	.	8dddJ	.
=50	=50	=50	=50	=50
8EL	4g	[2.gg	(16dddLL	.
.	.	.	16bbJ	.
8EJ	.	.	8cccJ)	.
8EL	4r	.	8r	.
8EJ	.	.	8ccc	.
8EL	4r	.	8cccL	.
8EJ	.	.	8cccJ	.
=51	=51	=51	=51	=51
8DL	2.r	2.gg_	(16cccLL	.
.	.	.	16aaJ	.
8DJ	.	.	8bbJ)	.
8DL	.	.	8r	.
8DJ	.	.	8bb	.
8DL	.	.	8bbL	.
8DJ	.	.	8bbJ	.
=52	=52	=52	=52	=52
8C#XL	8r	24ggLL]	4aa	.
.	.	24ee	.	.
.	.	24dd	.	.
8C#J	4a	24cc#X	.	.
.	.	24b	.	.
.	.	24aJJ	.	.
8C#L	.	24gLL	4r	.
.	.	24e	.	.
.	.	24d	.	.
8C#J	4a	24c#X	.	.
.	.	24B	.	.
.	.	24AJJ	.	.
8C#L	.	16eeLL	4r	.
.	.	16a	.	.
8C#J	8a	16gg	.	.
.	.	16eeJJ	.	.
=53	=53	=53	=53	=53
4.D	(16aLL	(16ff#LL	2.r	.
.	16g	16ee	.	.
.	16f#	16dd	.	.
.	16gJJ)	16eeJJ)	.	.
.	8f#'L	4dd	.	.
8c	(8eeJ	.	.	.
8BL	8ddL)	4r	.	.
8AJ	8f#'J	.	.	.
=54	=54	=54	=54	=54
4.G	(16gLL	[2.dd	(16bbLL	.
.	16f#	.	16aa	.
.	16g	.	16bb	.
.	16aJJ	.	16cccJJ	.
.	8bL)	.	8dddL)	.
8G	8b'J	.	8gg'J	.
8GL	8b'L	.	8gg'L	.
8GJ	8b'J	.	8gg'J	.
=55	=55	=55	=55	=55
8F#L	(16ccLL	2dd]	(16cccLL	.
.	16a)	.	16aa)	.
8GJ	(16b	.	(16bb	.
.	16gJJ)	.	16ggJJ)	.
.	.	.	16qqgg/	.
4d	8f#L	.	8ff#L	.
.	(16aL	.	(16aaL	.
.	16f#JJ)	.	16ff#JJ)	.
16DLL	16dLL	8.ddL	4dd	.
16C	16e	.	.	.
16BB	16d	.	.	.
16AAJJ	16cJJ	16f#Jk	.	.
=56	=56	=56	=56	=56
4.GG	(16BLL	(16gLL	[2.ddd	.
.	16A	16a	.	.
.	16G	16b	.	.
.	16AJJ	16ccJJ	.	.
.	8BL)	8ddL)	.	.
8G	8BJ	8gJ	.	.
8GL	8BL	8gL	.	.
8GJ	8BJ	8gJ	.	.
=57	=57	=57	=57	=57
8F#L	(16cLL	(16ccLL	2.ddd]	.
.	16A)	16a)	.	.
8GJ	(16B	(16b	.	.
.	16GJJ)	16gJJ)	.	.
[4D	8F#L	8f#L	.	.
.	(16AL	(16aL	.	.
.	16F#JJ)	16f#JJ)	.	.
16DLL]	16DLL	4d	.	.
16C	(16e	.	.	.
16BB	16d)	.	.	.
16AAJJ	16F#JJ	.	.	.
=58	=58	=58	=58	=58
8BBL	8GL	8dL	16r	.
.	.	.	8gL	.
8BBJ	8GJ	8dJ	.	.
.	.	.	8b	.
8BBL	8dL	8gL	.	.
.	.	.	8dd	.
8BBJ	8dJ	8gJ	.	.
.	.	.	8gg	.
8BBL	8dL	8gL	.	.
.	.	.	8ccc	.
8BBJ	8dJ	8gJ	.	.
.	.	.	16ffnJk	.
=59	=59	=59	=59	=59
8C	8c	8g	24eeLL	.
.	.	.	24gg	.
.	.	.	24ee	.
8r	8r	8r	24cc	.
.	.	.	24ee	.
.	.	.	24ccJJ	.
4r	4r	4r	24gLL	.
.	.	.	24cc	.
.	.	.	24g	.
.	.	.	24e	.
.	.	.	24g	.
.	.	.	24eJJ	.
8r	8r	8r	16cLL	.
.	.	.	16gg	.
8C	8e	8g	16ee	.
.	.	.	16ccJJ	.
=60	=60	=60	=60	=60
8DL	8dL	8g	(32bLLL	.
.	.	.	32dd	.
.	.	.	32cc	.
.	.	.	32bJJJ	.
8DJ	8dJ	4g	32ccLLL	.
.	.	.	32dd	.
.	.	.	32ee	.
.	.	.	32ff#JJJ	.
8DL	8dL	.	32ggLLL	.
.	.	.	32aa	.
.	.	.	32bb	.
.	.	.	32cccJJJ	.
8DJ	8dJ	16bb	16ddd)	.
.	.	16r	16r	.
8DL	8dL	4ff#t	4aaT	.
8DJ	8dJ	.	.	.
=61	=61	=61	=61	=61
4GG	4d	4gg	8gg'L	.
.	.	.	(48aa'LL	.
.	.	.	48bb'	.
.	.	.	48ccc'	.
.	.	.	48ddd'	.
.	.	.	48eee'	.
.	.	.	48fff#'JJJ)	.
16r	16r	4r	8ggg'	.
(16GLL	(16bLL	.	.	.
16F#	16a	.	8r	.
16GJJ	16ccJJ	.	.	.
16ALL	16ccLL	4r	4r	.
16G	16b	.	.	.
16F#	16a	.	.	.
16GJJ)	16bJJ)	.	.	.
=62	=62	=62	=62	=62
4E	4b	8gg'L	2.r	.
.	.	(48aa'LL	.	.
.	.	48bb'	.	.
.	.	48ccc'	.	.
.	.	48ddd'	.	.
.	.	48eee'	.	.
.	.	48fff#'JJJ)	.	.
16r	16r	8ggg'	.	.
(16ELL	(16gLL	.	.	.
16D#X	16f#	8r	.	.
16EJJ	16gJJ	.	.	.
16F#LL	16aLL	4r	.	.
16E	16g	.	.	.
16D#	16f#	.	.	.
16EJJ)	16gJJ)	.	.	.
=63	=63	=63	=63	=63
4BB	8G'L	2.ddd	2.fffn	.
.	(48A'LL	.	.	.
.	48B'	.	.	.
.	48c'	.	.	.
.	48d'	.	.	.
.	48e'	.	.	.
.	48f#'JJJ)	.	.	.
8r	8g'L	.	.	.
8BB'	8G'J	.	.	.
8BB'L	8G'L	.	.	.
8BB'J	8G'J	.	.	.
=64	=64	=64	=64	=64
.	.	16qqddd/	16qqfff#/	.
8CL	8GL	8cccL	8eeeL	.
8CJ	8eJ	16bbL	16dddL	.
.	.	16aaJJ	16cccJJ	.
8DL	8dL	4gg	4bb	.
8DJ	8dJ	.	.	.
8DL	8dL	(8.ff#tL	(8.aaTL	.
8DJ	8dJ	.	.	.
.	.	32eeLL	32ggLL	.
.	.	32ff#JJJ)	32aaJJJ)	.
=65	=65	=65	=65	=65
[2.G	8d'L	4gg	8ggL	.
.	(8bJ	.	(8ddJ	.
.	8ccL	4r	8eeL	.
.	8bJ	.	8ddJ	.
.	8ccL	16r	8eeL	.
.	.	32qqddd/	.	.
.	.	16cccLL	.	.
.	.	32qqbb/	.	.
.	8aJ)	16aa	8ccJ)	.
.	.	32qqgg/	.	.
.	.	16ff#JJ	.	.
=66	=66	=66	=66	=66
2.G_	8g'L	8gg'L	4b	.
.	(8bJ	(8ddJ	.	.
.	8ccL	8eeL	4r	.
.	8bJ	8ddJ	.	.
.	8ccL	8eeL	16r	.
.	.	.	32qqddd/	.
.	.	.	16cccLL	.
.	.	.	32qqbb/	.
.	8aJ)	8ccJ)	16aa	.
.	.	.	32qqgg/	.
.	.	.	16ff#JJ	.
=67	=67	=67	=67	=67
(2G]	(2a	(2cc	(2ff#	.
8GG)	8g)	8b)	8gg)	.
8r	8r	8r	8r	.
=:|!	=:|!	=:|!	=:|!	=:|!
*-	*-	*-	*-	*-
!!!system-decoration: [(s1,s2,s3,s4)]
